assets/tab/tab_love.svg

<svg height="17" viewBox="0 0 19 17" width="19" xmlns="http://www.w3.org/2000/svg" xmlns:xlink="http://www.w3.org/1999/xlink"><defs><path id="a" d="m13.775 0c2.8856725 0 5.225 2.43904947 5.225 5.4477338 0 5.4477338-6.175 10.4002191-9.5 11.5522662-3.325-1.1520471-9.5-6.1045324-9.5-11.5522662 0-3.00868433 2.33931325-5.4477338 5.225-5.4477338 1.7671425 0 3.3294175.91467451 4.275 2.31469257.9455825-1.40001806 2.5078575-2.31469257 4.275-2.31469257zm-7.775 2.49068323c-1.80995475.760181-3.25791855 2.19004525-4 4h1.04977376c.59728506-1.30316742 1.64705882-2.35294118 2.95022624-2.95022624z"/><filter id="b" height="135.3%" width="131.6%" x="-15.8%" y="-17.6%"><feGaussianBlur in="SourceAlpha" result="shadowBlurInner1" stdDeviation="2"/><feOffset dx="2" dy="2" in="shadowBlurInner1" result="shadowOffsetInner1"/><feComposite in="shadowOffsetInner1" in2="SourceAlpha" k2="-1" k3="1" operator="arithmetic" result="shadowInnerInner1"/><feColorMatrix in="shadowInnerInner1" type="matrix" values="0 0 0 0 0.850980392   0 0 0 0 0.121568627   0 0 0 0 0.525490196  0 0 0 1 0"/></filter></defs><g fill="none" fill-rule="evenodd"><use fill="#f940a7" fill-rule="evenodd" xlink:href="#a"/><use fill="#000" filter="url(#b)" xlink:href="#a"/></g></svg>

<?xml version="1.0" encoding="UTF-8"?>
<svg width="19px" height="17px" viewBox="0 0 19 17" version="1.1" xmlns="http://www.w3.org/2000/svg" xmlns:xlink="http://www.w3.org/1999/xlink">
    <title>编组</title>
    <defs>
        <path d="M13.775,0 C16.6606725,0 19,2.43904947 19,5.4477338 C19,10.8954676 12.825,15.8479529 9.5,17 C6.175,15.8479529 0,10.8954676 0,5.4477338 C0,2.43904947 2.33931325,0 5.225,0 C6.9921425,0 8.5544175,0.914674505 9.5,2.31469257 C10.4455825,0.914674505 12.0078575,0 13.775,0 Z M6,2.49068323 C4.19004525,3.25086423 2.74208145,4.68072848 2,6.49068323 L2,6.49068323 L3.04977376,6.49068323 C3.64705882,5.18751581 4.69683258,4.13774205 6,3.54045699 L6,3.54045699 Z" id="path-1"></path>
        <filter x="-15.8%" y="-17.6%" width="131.6%" height="135.3%" filterUnits="objectBoundingBox" id="filter-2">
            <feGaussianBlur stdDeviation="2" in="SourceAlpha" result="shadowBlurInner1"></feGaussianBlur>
            <feOffset dx="2" dy="2" in="shadowBlurInner1" result="shadowOffsetInner1"></feOffset>
            <feComposite in="shadowOffsetInner1" in2="SourceAlpha" operator="arithmetic" k2="-1" k3="1" result="shadowInnerInner1"></feComposite>
            <feColorMatrix values="0 0 0 0 0.850980392   0 0 0 0 0.121568627   0 0 0 0 0.525490196  0 0 0 1 0" type="matrix" in="shadowInnerInner1"></feColorMatrix>
        </filter>
    </defs>
    <g id="页面-1" stroke="none" stroke-width="1" fill="none" fill-rule="evenodd">
        <g id="我的-我喜欢" transform="translate(-53.000000, -740.000000)">
            <g id="编组-8" transform="translate(0.000000, 728.000000)">
                <g id="形状结合" transform="translate(53.000000, 12.000000)">
                    <use fill="#F940A7" fill-rule="evenodd" xlink:href="#path-1"></use>
                    <use fill="black" fill-opacity="1" filter="url(#filter-2)" xlink:href="#path-1"></use>
                </g>
            </g>
        </g>
    </g>
</svg>
